icons/night/font.svg

<svg width="16" height="16" viewBox="0 0 16 16" fill="none" xmlns="http://www.w3.org/2000/svg">
<path fill-rule="evenodd" clip-rule="evenodd" d="M1.76 12.43L5.43 3.53H6.49L8.71 12.43H7L6.71 11H4L3.46 12.43H1.76ZM5.72 6.53L4.58 9.53H6.38L5.72 6.53ZM13.05 6.25C13.378 6.40745 13.6425 6.672 13.8 7C13.972 7.368 14.041 7.776 14 8.18L13.69 12.39H12.2V11.72C12.16 11.802 12.11 11.88 12.05 11.95C11.875 12.1317 11.6589 12.2689 11.42 12.35C11.16 12.443 10.886 12.49 10.61 12.49C10.3658 12.513 10.1195 12.4809 9.88933 12.3961C9.65915 12.3113 9.45093 12.1759 9.28 12C8.99363 11.6084 8.87162 11.1203 8.94 10.64C8.94457 10.3611 9.00743 10.0862 9.12453 9.83308C9.24164 9.57992 9.41041 9.35406 9.62 9.17C10.1052 8.80617 10.7049 8.62873 11.31 8.67H12.49V8.23C12.5074 8.12669 12.4992 8.0207 12.466 7.92132C12.4329 7.82193 12.3759 7.7322 12.3 7.66C12.1107 7.51718 11.8768 7.4463 11.64 7.46C11.4423 7.46315 11.2472 7.50643 11.0668 7.58722C10.8863 7.66802 10.7241 7.78463 10.59 7.93L9.46 7.27C9.65834 6.87307 9.97207 6.5454 10.36 6.33C10.799 6.10492 11.2867 5.99157 11.78 6C12.2174 5.97872 12.6533 6.06454 13.05 6.25ZM12.21 10.856C12.2642 10.77 12.2952 10.6715 12.3 10.57H12.35V9.92H11.23C11.026 9.90879 10.8245 9.96889 10.66 10.09C10.586 10.1594 10.5266 10.243 10.4854 10.3357C10.4441 10.4285 10.4219 10.5285 10.42 10.63C10.4087 10.7108 10.4174 10.7932 10.4453 10.8699C10.4732 10.9466 10.5194 11.0153 10.58 11.07C10.7518 11.1819 10.9555 11.2346 11.16 11.22C11.445 11.231 11.73 11.177 11.99 11.06C12.0797 11.0121 12.1555 10.9418 12.21 10.856Z" fill="#9D7CD8"/>
</svg>

<svg xmlns="http://www.w3.org/2000/svg" fill="none" viewBox="0 0 16 16"><path
    fill="#9d7cd8"
    fill-rule="evenodd"
    d="m1.76 12.43 3.67-8.9h1.06l2.22 8.9H7L6.71 11H4l-.54 1.43h-1.7Zm3.96-5.9-1.14 3h1.8l-.66-3Zm7.33-.28a1.6 1.6 0 0 1 .75.75c.172.368.241.776.2 1.18l-.31 4.21H12.2v-.67c-.04.082-.09.16-.15.23a1.58 1.58 0 0 1-.63.4c-.26.093-.534.14-.81.14A1.64 1.64 0 0 1 9.28 12a1.86 1.86 0 0 1-.34-1.36 2 2 0 0 1 .68-1.47 2.53 2.53 0 0 1 1.69-.5h1.18v-.44a.64.64 0 0 0-.19-.57 1 1 0 0 0-.66-.2 1.46 1.46 0 0 0-1.05.47l-1.13-.66a2.2 2.2 0 0 1 .9-.94A3 3 0 0 1 11.78 6a2.69 2.69 0 0 1 1.27.25Zm-.84 4.606a.589.589 0 0 0 .09-.286h.05v-.65h-1.12a.88.88 0 0 0-.57.17.76.76 0 0 0-.24.54.5.5 0 0 0 .16.44.94.94 0 0 0 .58.15c.285.011.57-.043.83-.16a.59.59 0 0 0 .22-.204Z"
    clip-rule="evenodd"
  /></svg>
